!!!COM: Vivaldi, Antonio
!!!CDT: 1678/03/04/-1741/07/27/
!!!OTL: Concerto in G Minor, Op. 6, No. 3
!!!OMV: No. 1
!!!OMD: Allegro
**kern	**dynam	**kern	**kern	**dynam	**kern	**dynam	**kern	**dynam	**kern	**dynam
*staff6	*staff6	*staff5	*staff4	*staff4	*staff3	*staff3	*staff2	*staff2	*staff1	*staff1
*Icemba	*Icemba	*Icemba	*Icello	*Icello	*Iviola	*Iviola	*Ivioln	*Ivioln	*Ivioln	*Ivioln
*clefF4	*clefF4	*clefG2	*clefF4	*clefF4	*clefC3	*clefC3	*clefG2	*clefG2	*clefG2	*clefG2
*k[b-e-]	*k[b-e-]	*k[b-e-]	*k[b-e-]	*k[b-e-]	*k[b-e-]	*k[b-e-]	*k[b-e-]	*k[b-e-]	*k[b-e-]	*k[b-e-]
*M2/4	*M2/4	*M2/4	*M2/4	*M2/4	*M2/4	*M2/4	*M2/4	*M2/4	*M2/4	*M2/4
*MM120	*MM120	*MM120	*MM120	*MM120	*MM120	*MM120	*MM120	*MM120	*MM120	*MM120
16r	.	16r	16r	.	16r	.	16dd\	.	16dd\	f
=1	=1	=1	=1	=1	=1	=1	=1	=1	=1	=1
4G\	.	2r	4G\	.	4b-\	.	4gg\	.	4gg\	.
4D\	.	.	4D\	.	4a\	.	4ff#\	.	4ff#\	.
=2	=2	=2	=2	=2	=2	=2	=2	=2	=2	=2
8G\L	.	2r	8G\L	.	8b-\L	.	4gg\	.	4gg\	.
8A\	.	.	8A\	.	8cc\	.	.	.	.	.
8B-\	.	.	8B-\	.	8dd\	.	8r	.	8r	.
8G\J	.	.	8G\J	.	8b-\J	.	8dd\	.	8dd\	.
=3	=3	=3	=3	=3	=3	=3	=3	=3	=3	=3
8c\L	.	2r	8c\L	.	8g\L	.	8ee-\L	.	8ee-\L	.
8A\	.	.	8A\	.	8cc\	.	8cc\	.	8cc\	.
8F#\	.	.	8F#\	.	8a\	.	8dd\	.	8dd\	.
8D\J	.	.	8D\J	.	8f#\J	.	8a\J	.	8a\J	.
=4	=4	=4	=4	=4	=4	=4	=4	=4	=4	=4
8G\L	.	2r	8G\L	.	8d\L	.	8b-\L	.	8b-\L	.
8A\	.	.	8A\	.	8c\	.	8g\J	.	8g\J	.
8B-\	.	.	8B-\	.	8d\	.	8r	.	8r	.
8G\J	.	.	8G\J	.	8B-\J	.	8bb-\	.	8bb-\	.
=5	=5	=5	=5	=5	=5	=5	=5	=5	=5	=5
8C#\L	.	2r	8C#\L	.	8A\L	.	4aa\	.	4aa\	.
8D\	.	.	8D\	.	8f\	.	.	.	.	.
8En\	.	.	8En\	.	8g\	.	4gg\	.	4gg\	.
8C#\J	.	.	8C#\J	.	8en\J	.	.	.	.	.
=6	=6	=6	=6	=6	=6	=6	=6	=6	=6	=6
8D/L	.	2r	8D/L	.	8A\L	.	4ff#\	.	4ff#\	.
8C/	.	.	8C/	.	8a\	.	.	.	.	.
8BB-/	.	.	8BB-/	.	8d\	.	8r	.	8r	.
8AA/J	.	.	8AA/J	.	8c\J	.	8dd\	.	8dd\	.
=7	=7	=7	=7	=7	=7	=7	=7	=7	=7	=7
4GG/	.	2r	4GG/	.	4d\	.	8bb-\L	.	8bb-\L	.
.	.	.	.	.	.	.	8bb-\	.	8bb-\	.
8r	.	.	8r	.	8r	.	8bb-\	.	8bb-\	.
8G\	.	.	8G\	.	8g\	.	8bb-\J	.	8bb-\J	.
=8	=8	=8	=8	=8	=8	=8	=8	=8	=8	=8
8c\L	.	2r	8c\L	.	8e-\L	.	8bb-\L	.	8bb-\L	.
8c\	.	.	8c\	.	8e-\	.	8cc\J	.	8cc\J	.
8c\	.	.	8c\	.	8e-\	.	8r	.	8r	.
8c\J	.	.	8c\J	.	8e-\J	.	8cc\	.	8cc\	.
=9	=9	=9	=9	=9	=9	=9	=9	=9	=9	=9
4F\	.	2r	4F\	.	4c\	.	8aa\L	.	8aa\L	.
.	.	.	.	.	.	.	8aa\	.	8aa\	.
8r	.	.	8r	.	8r	.	8aa\	.	8aa\	.
8F\	.	.	8F\	.	8f\	.	8aa\J	.	8aa\J	.
=10	=10	=10	=10	=10	=10	=10	=10	=10	=10	=10
8B-\L	.	2r	8B-\L	.	8d\L	.	8aa\L	.	8aa\L	.
8B-\	.	.	8B-\	.	8d\	.	8b-\J	.	8b-\J	.
8B-\	.	.	8B-\	.	8d\	.	8r	.	8r	.
8B-\J	.	.	8B-\J	.	8d\J	.	8b-\	.	8b-\	.
=11	=11	=11	=11	=11	=11	=11	=11	=11	=11	=11
4E-\	.	2r	4E-\	.	8B-\L	.	8gg\L	.	8gg\L	.
.	.	.	.	.	8B-\	.	8gg\	.	8gg\	.
8r	.	.	8r	.	8c\	.	8gg\	.	8gg\	.
8E-\	.	.	8E-\	.	8c\J	.	8gg\J	.	8gg\J	.
=12	=12	=12	=12	=12	=12	=12	=12	=12	=12	=12
8D\L	.	2r	8D\L	.	8A\L	.	4ff#\	.	4ff#\	.
8A\	.	.	8A\	.	8f#\	.	.	.	.	.
8B-\	.	.	8B-\	.	8d\	.	8r	.	8r	.
8G\J	.	.	8G\J	.	8b-\J	.	8dd\	.	8dd\	.
=13	=13	=13	=13	=13	=13	=13	=13	=13	=13	=13
8C\L	.	2r	8C\L	.	8cc\L	.	8ee-\L	.	8ee-\L	.
8G\	.	.	8G\	.	8b-\	.	8dd\J	.	8dd\J	.
8B-\	.	.	8B-\	.	8dd\	.	8r	.	8r	.
8G\J	.	.	8G\J	.	8b-\J	.	8dd\	.	8dd\	.
=14	=14	=14	=14	=14	=14	=14	=14	=14	=14	=14
8C\L	.	2r	8C\L	.	8cc\L	.	8ee-\L	.	8ee-\L	.
8G\	.	.	8G\	.	8b-\	.	8dd\J	.	8dd\J	.
8F#\	.	.	8F#\	.	8dd\	.	8r	.	8r	.
8D\J	.	.	8D\J	.	8f#\J	.	8aa\	.	8aa\	.
=15	=15	=15	=15	=15	=15	=15	=15	=15	=15	=15
8G\L	.	2r	8G\L	.	8d\L	.	8bb-\L	.	8bb-\L	.
8F#\	.	.	8F#\	.	8d\	.	8aa\J	.	8aa\J	.
8D\	.	.	8D\	.	8f#\	.	8r	.	8r	.
8F#\J	.	.	8F#\J	.	8d\J	.	8aa\	.	8aa\	.
=16	=16	=16	=16	=16	=16	=16	=16	=16	=16	=16
8G\L	.	2r	8G\L	.	8d\L	.	8bb-\L	.	8bb-\L	.
8F#\	.	.	8F#\	.	8d\	.	8aa\J	.	8aa\J	.
8D\	.	.	8D\	.	8f#\	.	8r	.	8r	.
8G\J	.	.	8G\J	.	8g\J	.	8g/	.	8g/	.
=17	=17	=17	=17	=17	=17	=17	=17	=17	=17	=17
8Fn\L	.	2r	8Fn\L	.	8fn\L	.	8f/L	.	8f/L	.
8E-\	.	.	8E-\	.	8e-\	.	8e-/	.	8e-/	.
8D\	.	.	8D\	.	8d\	.	8d/	.	8d/	.
8C\J	.	.	8C\J	.	8c\J	.	8c/J	.	8c/J	.
=18	=18	=18	=18	=18	=18	=18	=18	=18	=18	=18
8BB-/L	.	2r	8BB-/L	.	8B-\L	.	8B-/L	.	8B-/L	.
8AA/	.	.	8AA/	.	8A\	.	8A/	.	8A/	.
8GG/	.	.	8GG/	.	8G\	.	8G/	.	8G/	.
8D/J	.	.	8D/J	.	8d\J	.	8d/J	.	8d/J	.
=19	=19	=19	=19	=19	=19	=19	=19	=19	=19	=19
8C/L	.	2r	8C/L	.	8c\L	.	8c/L	.	8c/L	.
8BB-/	.	.	8BB-/	.	8B-\	.	8B-/	.	8B-/	.
8AA/	.	.	8AA/	.	8A\	.	8A/	.	8A/	.
8GG/J	.	.	8GG/J	.	8G\J	.	8G/J	.	8G/J	.
=20	=20	=20	=20	=20	=20	=20	=20	=20	=20	=20
4D\	.	2r	4D\	.	4d\	.	4d/	.	4d/	.
8.r	.	.	8.r	.	8.r	.	8.r	.	8.r	.
16BB-/	.	.	16BB-/	.	16d\	.	16gg\	.	16gg\	.
=21	=21	=21	=21	=21	=21	=21	=21	=21	=21	=21
4C/	.	2r	4C/	.	4e-\	.	4aa\	.	4aa\	.
4D\	.	.	4D\	.	4a\	.	4ff#\	.	4ff#\	.
=22	=22	=22	=22	=22	=22	=22	=22	=22	=22	=22
4GG/	.	2r	4GG/	.	4b-\	.	4gg\	.	4gg\	.
8.r	.	.	8.r	.	8.r	.	8.r	.	8.r	.
16BB-/	.	.	16BB-/	.	16d\	.	16g/	.	16g/	.
=23	=23	=23	=23	=23	=23	=23	=23	=23	=23	=23
4C/	.	2r	4C/	.	4e-\	.	4a/	.	4a/	.
4D\	.	.	4D\	.	4A/	.	4f#/	.	4f#/	.
=24	=24	=24	=24	=24	=24	=24	=24	=24	=24	=24
4GG/	.	2r	4GG/	.	4B-/	.	4g/	.	4g/	.
4r	.	.	4r	.	4r	.	4r	.	4r	.
=25	=25	=25	=25	=25	=25	=25	=25	=25	=25	=25
8G\L	.	2r	8G\L	.	2r	.	2r	.	12gg\L	.
.	.	.	.	.	.	.	.	.	12dd\	.
8GG\	.	.	8GG\	.	.	.	.	.	.	.
.	.	.	.	.	.	.	.	.	12gg\J	.
8d\	.	.	8d\	.	.	.	.	.	12ff#\L	.
.	.	.	.	.	.	.	.	.	12dd\	.
8D\J	.	.	8D\J	.	.	.	.	.	.	.
.	.	.	.	.	.	.	.	.	12ff#\J	.
=26	=26	=26	=26	=26	=26	=26	=26	=26	=26	=26
8G\L	.	2r	8G\L	.	2r	.	2r	.	12gg\L	.
.	.	.	.	.	.	.	.	.	12dd\	.
8GG\	.	.	8GG\	.	.	.	.	.	.	.
.	.	.	.	.	.	.	.	.	12gg\J	.
8d\	.	.	8d\	.	.	.	.	.	12ff#\L	.
.	.	.	.	.	.	.	.	.	12dd\	.
8D\J	.	.	8D\J	.	.	.	.	.	.	.
.	.	.	.	.	.	.	.	.	12ff#\J	.
=27	=27	=27	=27	=27	=27	=27	=27	=27	=27	=27
8G\L	.	2r	8G\L	.	2r	.	2r	.	12gg\L	.
.	.	.	.	.	.	.	.	.	12aa\	.
8GG\	.	.	8GG\	.	.	.	.	.	.	.
.	.	.	.	.	.	.	.	.	12bb-\J	.
8c\	.	.	8c\	.	.	.	.	.	12aa\L	.
.	.	.	.	.	.	.	.	.	12bb-\	.
8C\J	.	.	8C\J	.	.	.	.	.	.	.
.	.	.	.	.	.	.	.	.	12gg\J	.
=28	=28	=28	=28	=28	=28	=28	=28	=28	=28	=28
8D/L	.	2r	8D/L	.	2r	.	2r	.	12ff#\L	.
.	.	.	.	.	.	.	.	.	12dd\	.
8C/	.	.	8C/	.	.	.	.	.	.	.
.	.	.	.	.	.	.	.	.	12a\J	.
8BB-/	.	.	8BB-/	.	.	.	.	.	8d/	.
8AA/J	.	.	8AA/J	.	.	.	.	.	8r	.
=29	=29	=29	=29	=29	=29	=29	=29	=29	=29	=29
8GG/L	.	2r	8GG/L	.	2r	.	2r	.	12gg\L	.
.	.	.	.	.	.	.	.	.	12dd\	.
8G/	.	.	8G/	.	.	.	.	.	.	.
.	.	.	.	.	.	.	.	.	12aa\J	.
8G/	.	.	8G/	.	.	.	.	.	12bb-\L	.
.	.	.	.	.	.	.	.	.	12gg\	.
8GG/J	.	.	8GG/J	.	.	.	.	.	.	.
.	.	.	.	.	.	.	.	.	12ff\J	.
=30	=30	=30	=30	=30	=30	=30	=30	=30	=30	=30
8C\L	.	2r	8C\L	.	2r	.	2r	.	12ee-\L	.
.	.	.	.	.	.	.	.	.	12cc\	.
8c\	.	.	8c\	.	.	.	.	.	.	.
.	.	.	.	.	.	.	.	.	12dd\J	.
8c\	.	.	8c\	.	.	.	.	.	12ee-\L	.
.	.	.	.	.	.	.	.	.	12dd\	.
8C\J	.	.	8C\J	.	.	.	.	.	.	.
.	.	.	.	.	.	.	.	.	12cc\J	.
=31	=31	=31	=31	=31	=31	=31	=31	=31	=31	=31
8FF/L	.	2r	8FF/L	.	2r	.	2r	.	12aa\L	.
.	.	.	.	.	.	.	.	.	12ff\	.
8F/	.	.	8F/	.	.	.	.	.	.	.
.	.	.	.	.	.	.	.	.	12gg\J	.
8F/	.	.	8F/	.	.	.	.	.	12aa\L	.
.	.	.	.	.	.	.	.	.	12ff\	.
8FF/J	.	.	8FF/J	.	.	.	.	.	.	.
.	.	.	.	.	.	.	.	.	12ee-\J	.
=32	=32	=32	=32	=32	=32	=32	=32	=32	=32	=32
8BB-\L	.	2r	8BB-\L	.	2r	.	2r	.	12dd\L	.
.	.	.	.	.	.	.	.	.	12b-\	.
8B-\	.	.	8B-\	.	.	.	.	.	.	.
.	.	.	.	.	.	.	.	.	12cc\J	.
8B-\	.	.	8B-\	.	.	.	.	.	12dd\L	.
.	.	.	.	.	.	.	.	.	12cc\	.
8BB-\J	.	.	8BB-\J	.	.	.	.	.	.	.
.	.	.	.	.	.	.	.	.	12b-\J	.
=33	=33	=33	=33	=33	=33	=33	=33	=33	=33	=33
8E-\L	.	2r	8E-\L	.	2r	.	2r	.	12gg\L	.
.	.	.	.	.	.	.	.	.	12ee-\	.
8E-\	.	.	8E-\	.	.	.	.	.	.	.
.	.	.	.	.	.	.	.	.	12gg\J	.
8F\	.	.	8F\	.	.	.	.	.	12aa\L	.
.	.	.	.	.	.	.	.	.	12ff\	.
8F\J	.	.	8F\J	.	.	.	.	.	.	.
.	.	.	.	.	.	.	.	.	12aa\J	.
=34	=34	=34	=34	=34	=34	=34	=34	=34	=34	=34
8G\L	.	2r	8G\L	.	2r	.	2r	.	12bb-\L	.
.	.	.	.	.	.	.	.	.	12aa\	.
8G\	.	.	8G\	.	.	.	.	.	.	.
.	.	.	.	.	.	.	.	.	12gg\J	.
8A\	.	.	8A\	.	.	.	.	.	12ff\L	.
.	.	.	.	.	.	.	.	.	12gg\	.
8A\J	.	.	8A\J	.	.	.	.	.	.	.
.	.	.	.	.	.	.	.	.	12ee-\J	.
=35	=35	=35	=35	=35	=35	=35	=35	=35	=35	=35
8B-\L	.	2r	8B-\L	.	2r	.	2r	.	12dd\L	.
.	.	.	.	.	.	.	.	.	12ff\	.
8B-\	.	.	8B-\	.	.	.	.	.	.	.
.	.	.	.	.	.	.	.	.	12bb-\J	.
8A\	.	.	8A\	.	.	.	.	.	12gg\L	.
.	.	.	.	.	.	.	.	.	12ff\	.
8A\J	.	.	8A\J	.	.	.	.	.	.	.
.	.	.	.	.	.	.	.	.	12ee-\J	.
=36	=36	=36	=36	=36	=36	=36	=36	=36	=36	=36
8B-\L	.	2r	8B-\L	.	2r	.	2r	.	(12dd\L	.
.	.	.	.	.	.	.	.	.	12ff\)	.
8B-\	.	.	8B-\	.	.	.	.	.	.	.
.	.	.	.	.	.	.	.	.	12bb-\J	.
8A\	.	.	8A\	.	.	.	.	.	12gg\L	.
.	.	.	.	.	.	.	.	.	12ff\	.
8A\J	.	.	8A\J	.	.	.	.	.	.	.
.	.	.	.	.	.	.	.	.	12ee-\J	.
=37	=37	=37	=37	=37	=37	=37	=37	=37	=37	=37
8B-\L	.	2r	8B-\L	.	2r	.	2r	.	12dd\L	.
.	.	.	.	.	.	.	.	.	12ff\	.
8B-\	.	.	8B-\	.	.	.	.	.	.	.
.	.	.	.	.	.	.	.	.	12bb-\J	.
8BB-\	.	.	8BB-\	.	.	.	.	.	12dd\L	.
.	.	.	.	.	.	.	.	.	12ff\	.
8BB-\J	.	.	8BB-\J	.	.	.	.	.	.	.
.	.	.	.	.	.	.	.	.	12bb-\J	.
=38	=38	=38	=38	=38	=38	=38	=38	=38	=38	=38
8F/L	.	2r	8F/L	.	2r	.	2r	.	12cc\L	.
.	.	.	.	.	.	.	.	.	12ff\	.
8F/	.	.	8F/	.	.	.	.	.	.	.
.	.	.	.	.	.	.	.	.	12bb-\J	.
8FF/	.	.	8FF/	.	.	.	.	.	12cc\L	.
.	.	.	.	.	.	.	.	.	12ff\	.
8FF/J	.	.	8FF/J	.	.	.	.	.	.	.
.	.	.	.	.	.	.	.	.	12bb-\J	.
=39	=39	=39	=39	=39	=39	=39	=39	=39	=39	=39
8F\L	.	2r	8F\L	.	2r	.	2r	.	12cc\L	.
.	.	.	.	.	.	.	.	.	12ff\	.
8F\	.	.	8F\	.	.	.	.	.	.	.
.	.	.	.	.	.	.	.	.	12aa\J	.
8FF\	.	.	8FF\	.	.	.	.	.	12cc\L	.
.	.	.	.	.	.	.	.	.	12ff\	.
8FF\J	.	.	8FF\J	.	.	.	.	.	.	.
.	.	.	.	.	.	.	.	.	12aa\J	.
=40	=40	=40	=40	=40	=40	=40	=40	=40	=40	=40
8BB-\L	.	2r	8BB-\L	.	2r	.	2r	.	4bb-\	.
8C\	.	.	8C\	.	.	.	.	.	.	.
8D\	.	.	8D\	.	.	.	.	.	8r	.
8BB-\J	.	.	8BB-\J	.	.	.	.	.	16bb-\LL	.
.	.	.	.	.	.	.	.	.	16aa\JJ	.
=41	=41	=41	=41	=41	=41	=41	=41	=41	=41	=41
8E-\L	.	2r	8E-\L	.	2r	.	2r	.	16gg\LL	.
.	.	.	.	.	.	.	.	.	16ff\	.
8E-\	.	.	8E-\	.	.	.	.	.	16ee-\	.
.	.	.	.	.	.	.	.	.	16dd\JJ	.
8E-\	.	.	8E-\	.	.	.	.	.	16cc\LL	.
.	.	.	.	.	.	.	.	.	16b-\	.
8E-\J	.	.	8E-\J	.	.	.	.	.	16a\	.
.	.	.	.	.	.	.	.	.	16g\JJ	.
=42	=42	=42	=42	=42	=42	=42	=42	=42	=42	=42
8D\L	.	2r	8D\L	.	2r	.	2r	.	16f/LL	.
.	.	.	.	.	.	.	.	.	16b-/	.
8D\	.	.	8D\	.	.	.	.	.	16b-/	.
.	.	.	.	.	.	.	.	.	16b-/JJ	.
8BB-\	.	.	8BB-\	.	.	.	.	.	16d/LL	.
.	.	.	.	.	.	.	.	.	16b-/	.
8BB-\J	.	.	8BB-\J	.	.	.	.	.	16b-/	.
.	.	.	.	.	.	.	.	.	16b-/JJ	.
=43	=43	=43	=43	=43	=43	=43	=43	=43	=43	=43
8C/L	.	2r	8C/L	.	2r	.	2r	.	16e-/LL	.
.	.	.	.	.	.	.	.	.	16b-/	.
8C/	.	.	8C/	.	.	.	.	.	16b-/	.
.	.	.	.	.	.	.	.	.	16b-/JJ	.
8C/	.	.	8C/	.	.	.	.	.	16e-/LL	.
.	.	.	.	.	.	.	.	.	16b-/	.
8C/J	.	.	8C/J	.	.	.	.	.	16b-/	.
.	.	.	.	.	.	.	.	.	16b-/JJ	.
=44	=44	=44	=44	=44	=44	=44	=44	=44	=44	=44
8D\L	.	2r	8D\L	.	2r	.	2r	.	16f/LL	.
.	.	.	.	.	.	.	.	.	16b-/	.
8D\	.	.	8D\	.	.	.	.	.	16b-/	.
.	.	.	.	.	.	.	.	.	16b-/JJ	.
8D\	.	.	8D\	.	.	.	.	.	16f/LL	.
.	.	.	.	.	.	.	.	.	16b-/	.
8D\J	.	.	8D\J	.	.	.	.	.	16b-/	.
.	.	.	.	.	.	.	.	.	16b-/JJ	.
=45	=45	=45	=45	=45	=45	=45	=45	=45	=45	=45
8E-\L	.	2r	8E-\L	.	2r	.	2r	.	16g/LL	.
.	.	.	.	.	.	.	.	.	16b-/	.
8E-\	.	.	8E-\	.	.	.	.	.	16b-/	.
.	.	.	.	.	.	.	.	.	16b-/JJ	.
8E-\	.	.	8E-\	.	.	.	.	.	16g/LL	.
.	.	.	.	.	.	.	.	.	16b-/	.
8E-\J	.	.	8E-\J	.	.	.	.	.	16b-/	.
.	.	.	.	.	.	.	.	.	16b-/JJ	.
=46	=46	=46	=46	=46	=46	=46	=46	=46	=46	=46
8BB-/L	.	2r	8BB-/L	.	2r	.	2r	.	16d/LL	.
.	.	.	.	.	.	.	.	.	16b-/	.
8BB-/	.	.	8BB-/	.	.	.	.	.	16b-/	.
.	.	.	.	.	.	.	.	.	16b-/JJ	.
8BB-/	.	.	8BB-/	.	.	.	.	.	16d/LL	.
.	.	.	.	.	.	.	.	.	16b-/	.
8BB-/J	.	.	8BB-/J	.	.	.	.	.	16b-/	.
.	.	.	.	.	.	.	.	.	16b-/JJ	.
=47	=47	=47	=47	=47	=47	=47	=47	=47	=47	=47
8C/L	.	2r	8C/L	.	2r	.	2r	.	16e-/LL	.
.	.	.	.	.	.	.	.	.	16b-/	.
8C/	.	.	8C/	.	.	.	.	.	16b-/	.
.	.	.	.	.	.	.	.	.	16b-/JJ	.
8C/	.	.	8C/	.	.	.	.	.	16e-/LL	.
.	.	.	.	.	.	.	.	.	16a/	.
8C/J	.	.	8C/J	.	.	.	.	.	16a/	.
.	.	.	.	.	.	.	.	.	16a/JJ	.
=48	=48	=48	=48	=48	=48	=48	=48	=48	=48	=48
8F\L	.	2r	8F\L	.	2r	.	2r	.	16f/LL	.
.	.	.	.	.	.	.	.	.	16b-/	.
8F\	.	.	8F\	.	.	.	.	.	16b-/	.
.	.	.	.	.	.	.	.	.	16b-/JJ	.
8FF\	.	.	8FF\	.	.	.	.	.	16f/LL	.
.	.	.	.	.	.	.	.	.	16a/	.
8FF\J	.	.	8FF\J	.	.	.	.	.	16a/	.
.	.	.	.	.	.	.	.	.	16a/JJ	.
=49	=49	=49	=49	=49	=49	=49	=49	=49	=49	=49
8BB-/L	.	2r	8BB-/L	.	2r	.	4r	.	4b-\	.
8C/	.	.	8C/	.	.	.	.	.	.	.
8D/	.	.	8D/	.	.	.	8r	.	8r	.
8C/J	.	.	8C/J	.	.	.	8dd\	f	8dd\	f
=50	=50	=50	=50	=50	=50	=50	=50	=50	=50	=50
4BB-/	.	2r	4BB-/	.	4r	.	8bb-\L	.	8bb-\L	.
.	.	.	.	.	.	.	8bb-\	.	8bb-\	.
8r	.	.	8r	.	8r	.	8bb-\	.	8bb-\	.
8G\	f	.	8G\	f	8g\	f	8bb-\J	.	8bb-\J	.
=51	=51	=51	=51	=51	=51	=51	=51	=51	=51	=51
8c\L	.	2r	8c\L	.	8e-\L	.	8bb-\L	.	8bb-\L	.
8c\	.	.	8c\	.	8e-\	.	8cc\J	.	8cc\J	.
8c\	.	.	8c\	.	8e-\	.	8r	.	8r	.
8c\J	.	.	8c\J	.	8e-\J	.	8cc\	.	8cc\	.
=52	=52	=52	=52	=52	=52	=52	=52	=52	=52	=52
4F\	.	2r	4F\	.	4c\	.	8aa\L	.	8aa\L	.
.	.	.	.	.	.	.	8aa\	.	8aa\	.
8r	.	.	8r	.	8r	.	8aa\	.	8aa\	.
8F\	.	.	8F\	.	8f\	.	8aa\J	.	8aa\J	.
=53	=53	=53	=53	=53	=53	=53	=53	=53	=53	=53
8B-\L	.	2r	8B-\L	.	8d\L	.	8aa\L	.	8aa\L	.
8B-\	.	.	8B-\	.	8d\	.	8b-\J	.	8b-\J	.
8B-\	.	.	8B-\	.	8d\	.	8r	.	8r	.
8B-\J	.	.	8B-\J	.	8d\J	.	8b-\	.	8b-\	.
=54	=54	=54	=54	=54	=54	=54	=54	=54	=54	=54
4E-\	.	2r	4E-\	.	8B-\L	.	8gg\L	.	8gg\L	.
.	.	.	.	.	8B-\	.	8gg\	.	8gg\	.
8r	.	.	8r	.	8c\	.	8gg\	.	8gg\	.
8E-\	.	.	8E-\	.	8c\J	.	8gg\J	.	8gg\J	.
=55	=55	=55	=55	=55	=55	=55	=55	=55	=55	=55
4D\	.	2r	4D\	.	4A/	.	4ff#\	.	4ff#\	.
8r	.	.	8r	.	8r	.	8r	.	8r	.
8G\	.	.	8G\	.	8g\	.	8g/	.	8g/	.
=56	=56	=56	=56	=56	=56	=56	=56	=56	=56	=56
8F\L	.	2r	8F\L	.	8f\L	.	8f/L	.	8f/L	.
8E-\	.	.	8E-\	.	8e-\	.	8e-/	.	8e-/	.
8D\	.	.	8D\	.	8d\	.	8d/	.	8d/	.
8C\J	.	.	8C\J	.	8c\J	.	8c/J	.	8c/J	.
=57	=57	=57	=57	=57	=57	=57	=57	=57	=57	=57
8BB-/L	.	2r	8BB-/L	.	8B-/L	.	8B-/L	.	8B-/L	.
8AA/	.	.	8AA/	.	8A/	.	8A/	.	8A/	.
8GG/	.	.	8GG/	.	8G/	.	8G/	.	8G/	.
8D/J	.	.	8D/J	.	8d/J	.	8d/J	.	8d/J	.
=58	=58	=58	=58	=58	=58	=58	=58	=58	=58	=58
8C/L	.	2r	8C/L	.	8c/L	.	8c/L	.	8c/L	.
8BB-/	.	.	8BB-/	.	8B-/	.	8B-/	.	8B-/	.
8AA/	.	.	8AA/	.	8A/	.	8A/	.	8A/	.
8GG/J	.	.	8GG/J	.	8G/J	.	8G/J	.	8G/J	.
=59	=59	=59	=59	=59	=59	=59	=59	=59	=59	=59
4D\	.	2r	4D\	.	4d\	.	4d/	.	4d/	.
8.r	.	.	8.r	.	8.r	.	8.r	.	8.r	.
16BB-/	.	.	16BB-/	.	16d\	.	16gg\	.	16gg\	.
=60	=60	=60	=60	=60	=60	=60	=60	=60	=60	=60
4C/	.	2r	4C/	.	4e-\	.	4aa\	.	4aa\	.
4D\	.	.	4D\	.	4a\	.	4ff#\	.	4ff#\	.
=61	=61	=61	=61	=61	=61	=61	=61	=61	=61	=61
*	*	*	*^	*	*	*	*	*	*	*
8G\L	.	2r	8G/L	4G\	.	4b-\	.	4gg\	.	16gg\LL	.
.	.	.	.	.	.	.	.	.	.	16dd\	.
8GG\	.	.	8GG/	.	.	.	.	.	.	16dd\	.
.	.	.	.	.	.	.	.	.	.	16gg\JJ	.
8d\	.	.	8d/	4r	.	4r	.	4r	.	16ff#\LL	.
.	.	.	.	.	.	.	.	.	.	16dd\	.
8D\J	.	.	8D/J	.	.	.	.	.	.	16dd\	.
.	.	.	.	.	.	.	.	.	.	16ff#\JJ	.
*	*	*	*v	*v	*	*	*	*	*	*	*
=62	=62	=62	=62	=62	=62	=62	=62	=62	=62	=62
8G\L	.	2r	8G\L	.	2r	.	2r	.	16gg\LL	.
.	.	.	.	.	.	.	.	.	16dd\	.
8GG\	.	.	8GG\	.	.	.	.	.	16dd\	.
.	.	.	.	.	.	.	.	.	16gg\JJ	.
8d\	.	.	8d\	.	.	.	.	.	16ff#\LL	.
.	.	.	.	.	.	.	.	.	16dd\	.
8D\J	.	.	8D\J	.	.	.	.	.	16dd\	.
.	.	.	.	.	.	.	.	.	16ff#\JJ	.
=63	=63	=63	=63	=63	=63	=63	=63	=63	=63	=63
8G\L	.	2r	8G\L	.	2r	.	2r	.	16gg\LL	.
.	.	.	.	.	.	.	.	.	16dd\	.
8GG\	.	.	8GG\	.	.	.	.	.	16dd\	.
.	.	.	.	.	.	.	.	.	16gg\JJ	.
8d\	.	.	8d\	.	.	.	.	.	16ff#\LL	.
.	.	.	.	.	.	.	.	.	16dd\	.
8D\J	.	.	8D\J	.	.	.	.	.	16dd\	.
.	.	.	.	.	.	.	.	.	16ff#\JJ	.
=64	=64	=64	=64	=64	=64	=64	=64	=64	=64	=64
8G\L	.	2r	8G\L	.	2r	.	2r	.	8gg\L	.
8G\	.	.	8G\	.	.	.	.	.	16aa\L	.
.	.	.	.	.	.	.	.	.	16bb-\JJ	.
8C#\	.	.	8C#\	.	.	.	.	.	8aa\L	.
8C#\J	.	.	8C#\J	.	.	.	.	.	8gg\J	.
=65	=65	=65	=65	=65	=65	=65	=65	=65	=65	=65
8D/L	.	2r	8D/L	.	2r	.	2r	.	8ff#\L	.
8C/	.	.	8C/	.	.	.	.	.	8dd\J	.
8BB-/	.	.	8BB-/	.	.	.	.	.	8r	.
8AA/J	.	.	8AA/J	.	.	.	.	.	8dd\	.
=66	=66	=66	=66	=66	=66	=66	=66	=66	=66	=66
8GG\L	.	2r	8GG\L	.	2r	.	2r	.	16bb-\LL	.
.	.	.	.	.	.	.	.	.	16dd\	.
8G\	.	.	8G\	.	.	.	.	.	16dd\	.
.	.	.	.	.	.	.	.	.	16dd\JJ	.
8G\	.	.	8G\	.	.	.	.	.	16bb-\LL	.
.	.	.	.	.	.	.	.	.	16dd\	.
8G\J	.	.	8G\J	.	.	.	.	.	16dd\	.
.	.	.	.	.	.	.	.	.	16dd\JJ	.
=67	=67	=67	=67	=67	=67	=67	=67	=67	=67	=67
8c\L	.	2r	8c\L	.	2r	.	2r	.	16ee-\LL	.
.	.	.	.	.	.	.	.	.	16cc\	.
8C\	.	.	8C\	.	.	.	.	.	16cc\	.
.	.	.	.	.	.	.	.	.	16cc\JJ	.
8C\	.	.	8C\	.	.	.	.	.	16ee-\LL	.
.	.	.	.	.	.	.	.	.	16cc\	.
8C\J	.	.	8C\J	.	.	.	.	.	16cc\	.
.	.	.	.	.	.	.	.	.	16cc\JJ	.
=68	=68	=68	=68	=68	=68	=68	=68	=68	=68	=68
8F\L	.	2r	8F\L	.	2r	.	2r	.	16aa\LL	.
.	.	.	.	.	.	.	.	.	16cc\	.
8F\	.	.	8F\	.	.	.	.	.	16cc\	.
.	.	.	.	.	.	.	.	.	16cc\JJ	.
8F\	.	.	8F\	.	.	.	.	.	16aa\LL	.
.	.	.	.	.	.	.	.	.	16cc\	.
8F\J	.	.	8F\J	.	.	.	.	.	16cc\	.
.	.	.	.	.	.	.	.	.	16cc\JJ	.
=69	=69	=69	=69	=69	=69	=69	=69	=69	=69	=69
8B-\L	.	2r	8B-\L	.	2r	.	2r	.	16gg\LL	.
.	.	.	.	.	.	.	.	.	16b-\	.
8BB-\	.	.	8BB-\	.	.	.	.	.	16b-\	.
.	.	.	.	.	.	.	.	.	16b-\JJ	.
8BB-\	.	.	8BB-\	.	.	.	.	.	16dd\LL	.
.	.	.	.	.	.	.	.	.	16b-\	.
8BB-\J	.	.	8BB-\J	.	.	.	.	.	16b-\	.
.	.	.	.	.	.	.	.	.	16b-\JJ	.
=70	=70	=70	=70	=70	=70	=70	=70	=70	=70	=70
8B-\L	.	2r	8B-\L	.	2r	.	2r	.	16gg\LL	.
.	.	.	.	.	.	.	.	.	16dd\	.
8BB-\	.	.	8BB-\	.	.	.	.	.	16dd\	.
.	.	.	.	.	.	.	.	.	16dd\JJ	.
8BB-\	.	.	8BB-\	.	.	.	.	.	16gg\LL	.
.	.	.	.	.	.	.	.	.	16dd\	.
8BB-\J	.	.	8BB-\J	.	.	.	.	.	16dd\	.
.	.	.	.	.	.	.	.	.	16dd\JJ	.
=71	=71	=71	=71	=71	=71	=71	=71	=71	=71	=71
8AA/L	.	2r	8AA/L	.	2r	.	2r	.	8cc#\L	.
8BBn/	.	.	8BBn/	.	.	.	.	.	8a\J	.
8C#/	.	.	8C#/	.	.	.	.	.	8r	.
8BB/J	.	.	8BB/J	.	.	.	.	.	8a/	.
=72	=72	=72	=72	=72	=72	=72	=72	=72	=72	=72
4AA/	.	2r	4AA/	.	2r	.	2r	.	8a\L	.
.	.	.	.	.	.	.	.	.	16bn\L	.
.	.	.	.	.	.	.	.	.	16cc#\JJ	.
4AA/	.	.	4AA/	.	.	.	.	.	8dd\L	.
.	.	.	.	.	.	.	.	.	8a\J	.
=73	=73	=73	=73	=73	=73	=73	=73	=73	=73	=73
4AA/	.	2r	4AA/	.	2r	.	2r	.	8a\L	.
.	.	.	.	.	.	.	.	.	16cc#\L	.
.	.	.	.	.	.	.	.	.	16dd\JJ	.
4AA/	.	.	4AA/	.	.	.	.	.	8een\L	.
.	.	.	.	.	.	.	.	.	8a\J	.
=74	=74	=74	=74	=74	=74	=74	=74	=74	=74	=74
4AA/	.	2r	4AA/	.	2r	.	2r	.	8a\L	.
.	.	.	.	.	.	.	.	.	16dd\L	.
.	.	.	.	.	.	.	.	.	16een\JJ	.
4AA/	.	.	4AA/	.	.	.	.	.	8ff\L	.
.	.	.	.	.	.	.	.	.	8a\J	.
=75	=75	=75	=75	=75	=75	=75	=75	=75	=75	=75
4AA/	.	2r	4AA/	.	2r	.	2r	.	8a\L	.
.	.	.	.	.	.	.	.	.	16een\L	.
.	.	.	.	.	.	.	.	.	16ff\JJ	.
4AA/	.	.	4AA/	.	.	.	.	.	8gg\L	.
.	.	.	.	.	.	.	.	.	8a\J	.
=76	=76	=76	=76	=76	=76	=76	=76	=76	=76	=76
4AA/	.	2r	4AA/	.	2r	.	2r	.	8a\L	.
.	.	.	.	.	.	.	.	.	8bb-\	.
8r	.	.	8r	.	.	.	.	.	8aa\	.
8d\	.	.	8d\	.	.	.	.	.	8gg#\J	.
=77	=77	=77	=77	=77	=77	=77	=77	=77	=77	=77
4c#\	.	2r	4c#\	.	2r	.	2r	.	8r	.
.	.	.	.	.	.	.	.	.	8aa\	.
8r	.	.	8r	.	.	.	.	.	8ggn\L	.
8cn\	.	.	8cn\	.	.	.	.	.	8ff#\J	.
=78	=78	=78	=78	=78	=78	=78	=78	=78	=78	=78
4Bn\	.	2r	4Bn\	.	2r	.	2r	.	8r	.
.	.	.	.	.	.	.	.	.	8gg\	.
8r	.	.	8r	.	.	.	.	.	8ffn\L	.
8B-\	.	.	8B-\	.	.	.	.	.	8een\J	.
=79	=79	=79	=79	=79	=79	=79	=79	=79	=79	=79
4A\	.	2r	4A\	.	2r	.	2r	.	8r	.
.	.	.	.	.	.	.	.	.	8ff\	.
8r	.	.	8r	.	.	.	.	.	8een\L	.
8A\	.	.	8A\	.	.	.	.	.	8dd\J	.
=80	=80	=80	=80	=80	=80	=80	=80	=80	=80	=80
8G\L	.	2r	8G\L	.	2r	.	2r	.	8bb-\L	.
8A\	.	.	8A\	.	.	.	.	.	8cc#\	.
8F\	.	.	8F\	.	.	.	.	.	8dd\	.
8G\J	.	.	8G\J	.	.	.	.	.	8bb-\J	.
=81	=81	=81	=81	=81	=81	=81	=81	=81	=81	=81
8F\L	.	2r	8F\L	.	2r	.	2r	.	8aa\L	.
8A\	.	.	8A\	.	.	.	.	.	8cc#\	.
8F\	.	.	8F\	.	.	.	.	.	8dd\	.
8G\J	.	.	8G\J	.	.	.	.	.	8bb-\J	.
=82	=82	=82	=82	=82	=82	=82	=82	=82	=82	=82
8F\L	.	2r	8F\L	.	2r	.	2r	.	8aa\L	.
8A\	.	.	8A\	.	.	.	.	.	8cc#\	.
8F\	.	.	8F\	.	.	.	.	.	8dd\	.
8En\J	.	.	8En\J	.	.	.	.	.	8gg\J	.
=83	=83	=83	=83	=83	=83	=83	=83	=83	=83	=83
8D\L	.	2r	8D\L	.	2r	.	2r	.	4ff\	.
8G\	.	.	8G\	.	.	.	.	.	.	.
8A\	.	.	8A\	.	.	.	.	.	4een\	.
8AA\J	.	.	8AA\J	.	.	.	.	.	.	.
=84	=84	=84	=84	=84	=84	=84	=84	=84	=84	=84
8D\L	.	2r	8D\L	.	2r	.	4r	.	4dd\	.
8En\	.	.	8En\	.	.	.	.	.	.	.
8F\	.	.	8F\	.	.	.	8r	.	8r	.
8E\J	.	.	8E\J	.	.	.	8a/	.	8a/	.
=85	=85	=85	=85	=85	=85	=85	=85	=85	=85	=85
4D\	.	2r	4D\	.	4r	.	8ff\L	.	8ff\L	.
.	.	.	.	.	.	.	8ff\	.	8ff\	.
8r	.	.	8r	.	8r	.	8ff\	.	8ff\	.
8D\	f	.	8D\	f	8f\	f	8ff\J	.	8ff\J	.
=86	=86	=86	=86	=86	=86	=86	=86	=86	=86	=86
8G\L	.	2r	8G\L	.	8B-/L	.	8ff\L	.	8ff\L	.
8G\	.	.	8G\	.	8B-/	.	8g\J	.	8g\J	.
8G\	.	.	8G\	.	8B-/	.	8r	.	8r	.
8G\J	.	.	8G\J	.	8B-/J	.	8g/	.	8g/	.
=87	=87	=87	=87	=87	=87	=87	=87	=87	=87	=87
4G\	.	2r	4G\	.	4B-/	.	8een\L	.	8een\L	.
.	.	.	.	.	.	.	8ee\	.	8ee\	.
8r	.	.	8r	.	8r	.	8ee\	.	8ee\	.
8G\	.	.	8G\	.	8B-/	.	8ee\J	.	8ee\J	.
=88	=88	=88	=88	=88	=88	=88	=88	=88	=88	=88
8F\L	.	2r	8F\L	.	8A/L	.	8een\L	.	8een\L	.
8F\	.	.	8F\	.	8A/	.	8f\J	.	8f\J	.
8F\	.	.	8F\	.	8A/	.	8r	.	8r	.
8F\J	.	.	8F\J	.	8A/J	.	8a/	.	8a/	.
=89	=89	=89	=89	=89	=89	=89	=89	=89	=89	=89
4F\	.	2r	4F\	.	4.A/	.	8dd\L	.	8dd\L	.
.	.	.	.	.	.	.	8dd\	.	8dd\	.
8r	.	.	8r	.	.	.	8dd\	.	8dd\	.
8F\	.	.	8F\	.	8a\	.	8dd\J	.	8dd\J	.
=90	=90	=90	=90	=90	=90	=90	=90	=90	=90	=90
4F\	.	2r	4F\	.	4a\	.	16dd\LL	.	16dd\LL	.
.	.	.	.	.	.	.	16een\	.	16een\	.
.	.	.	.	.	.	.	16ff\	.	16ff\	.
.	.	.	.	.	.	.	16gg\JJ	.	16gg\JJ	.
4F\	.	.	4F\	.	4d\	.	8aa\L	.	8aa\L	.
.	.	.	.	.	.	.	8dd\J	.	8dd\J	.
=91	=91	=91	=91	=91	=91	=91	=91	=91	=91	=91
4F\	.	2r	4F\	.	4a\	.	16dd\LL	.	16dd\LL	.
.	.	.	.	.	.	.	16een\	.	16een\	.
.	.	.	.	.	.	.	16ff\	.	16ff\	.
.	.	.	.	.	.	.	16gg\JJ	.	16gg\JJ	.
4F#\	.	.	4F#\	.	4d\	.	(8aa\L	.	8aa\L	.
.	.	.	.	.	.	.	8cc\J)	.	8cc\J	.
=92	=92	=92	=92	=92	=92	=92	=92	=92	=92	=92
4G\	.	2r	4G\	.	4d\	.	8b-/L	.	8b-/L	.
.	.	.	.	.	.	.	8G/	.	8G/	.
4G\	.	.	4G\	.	4d\	.	8G/	.	8G/	.
.	.	.	.	.	.	.	8dd/J	.	8dd/J	.
=93	=93	=93	=93	=93	=93	=93	=93	=93	=93	=93
4G\	.	2r	4G\	.	4b-\	.	16een\LL	.	16een\LL	.
.	.	.	.	.	.	.	16ff\	.	16ff\	.
.	.	.	.	.	.	.	16gg\	.	16gg\	.
.	.	.	.	.	.	.	16aa\JJ	.	16aa\JJ	.
4G\	.	.	4G\	.	4en\	.	8bb-\L	.	8bb-\L	.
.	.	.	.	.	.	.	8ee\J	.	8ee\J	.
=94	=94	=94	=94	=94	=94	=94	=94	=94	=94	=94
4G\	.	2r	4G\	.	4b-\	.	16een\LL	.	16een\LL	.
.	.	.	.	.	.	.	16ff\	.	16ff\	.
.	.	.	.	.	.	.	16gg\	.	16gg\	.
.	.	.	.	.	.	.	16aa\JJ	.	16aa\JJ	.
4G#\	.	.	4G#\	.	4en\	.	8bb-\L	.	8bb-\L	.
.	.	.	.	.	.	.	8dd\J	.	8dd\J	.
=95	=95	=95	=95	=95	=95	=95	=95	=95	=95	=95
*	*	*	*^	*	*	*	*	*	*	*
8AA/L	.	2r	8AA/L	4AA\	.	4en\	.	4cc#\	.	4cc#\	.
8BBn/	.	.	8BBn/	.	.	.	.	.	.	.	.
8C#/	.	.	8C#/	4r	.	4r	.	4r	.	8r	.
8AA/J	.	.	8AA/J	.	.	.	.	.	.	8a\ 8een\	.
*	*	*	*v	*v	*	*	*	*	*	*	*
=96	=96	=96	=96	=96	=96	=96	=96	=96	=96	=96
8D/L	.	2r	8D/L	.	2r	.	2r	.	8a\ 8ff\L	.
8AA/	.	.	8AA/	.	.	.	.	.	8a\ 8een\	.
8AA/	.	.	8AA/	.	.	.	.	.	8a\ 8ee\	.
8AA/J	.	.	8AA/J	.	.	.	.	.	8a\ 8aa\J	.
=97	=97	=97	=97	=97	=97	=97	=97	=97	=97	=97
8D/L	.	2r	8D/L	.	2r	.	2r	.	8a\ 8ff\L	.
8AA/	.	.	8AA/	.	.	.	.	.	8a\ 8een\	.
8AA/	.	.	8AA/	.	.	.	.	.	8a\ 8ee\	.
8AA/J	.	.	8AA/J	.	.	.	.	.	8a\ 8aa\J	.
=98	=98	=98	=98	=98	=98	=98	=98	=98	=98	=98
8D/L	.	2r	8D/L	.	2r	.	2r	.	8a\ 8ff\L	.
8AA/	.	.	8AA/	.	.	.	.	.	8a\ 8een\	.
8AA/	.	.	8AA/	.	.	.	.	.	8a\ 8ee\	.
8AA/J	.	.	8AA/J	.	.	.	.	.	8a\ 8aa\J	.
=99	=99	=99	=99	=99	=99	=99	=99	=99	=99	=99
8D\L	.	2r	8D\L	.	2r	.	2r	.	8a\ 8ff\L	.
8F\	.	.	8F\	.	.	.	.	.	16een\L	.
.	.	.	.	.	.	.	.	.	16dd\JJ	.
8G\	.	.	8G\	.	.	.	.	.	8ee\L	.
8A\J	.	.	8A\J	.	.	.	.	.	8cc#\J	.
=100	=100	=100	=100	=100	=100	=100	=100	=100	=100	=100
4D\	.	2r	4D\	.	4f\	.	4dd\	.	4dd\	.
4AA/	.	.	4AA/	.	4en\	.	4cc#\	.	4cc#\	.
=101	=101	=101	=101	=101	=101	=101	=101	=101	=101	=101
8D\L	.	2r	8D\L	.	8f\L	.	4dd\	.	4dd\	.
8En\	.	.	8En\	.	8g\	.	.	.	.	.
8F\	.	.	8F\	.	8a\	.	8r	.	8r	.
8D\J	.	.	8D\J	.	8f\J	.	8a/	.	8a/	.
=102	=102	=102	=102	=102	=102	=102	=102	=102	=102	=102
4G\	.	2r	4G\	.	4d\	.	8b-/L	.	8b-/L	.
.	.	.	.	.	.	.	8g/	.	8g/	.
4C#/	.	.	4C#/	.	4en\	.	8a/	.	8a/	.
.	.	.	.	.	.	.	8en/J	.	8en/J	.
=103	=103	=103	=103	=103	=103	=103	=103	=103	=103	=103
8D\L	.	2r	8D\L	.	8A/L	.	4f/	.	4f/	.
8En\	.	.	8En\	.	8G/	.	.	.	.	.
8F\	.	.	8F\	.	8A/	.	4d/	.	4d/	.
8BBn\J	.	.	8BBn\J	.	8d/J	.	.	.	.	.
=104	=104	=104	=104	=104	=104	=104	=104	=104	=104	=104
4C/	.	2r	4C/	.	4e-\	.	4cc\	.	4cc\	.
4GG/	.	.	4GG/	.	4d\	.	4bn\	.	4bn\	.
=105	=105	=105	=105	=105	=105	=105	=105	=105	=105	=105
8C\L	.	2r	8C\L	.	8e-\L	.	4cc\	.	4cc\	.
8D\	.	.	8D\	.	8f\	.	.	.	.	.
8E-\	.	.	8E-\	.	8g\	.	8r	.	8r	.
8C\J	.	.	8C\J	.	8e-\J	.	8g/	.	8g/	.
=106	=106	=106	=106	=106	=106	=106	=106	=106	=106	=106
4F\	.	2r	4F\	.	4c\	.	8a-/L	.	8a-/L	.
.	.	.	.	.	.	.	8f/	.	8f/	.
4BBn/	.	.	4BBn/	.	4d\	.	8g/	.	8g/	.
.	.	.	.	.	.	.	8d/J	.	8d/J	.
=107	=107	=107	=107	=107	=107	=107	=107	=107	=107	=107
8C\L	.	2r	8C\L	.	4G/	.	4e-/	.	4e-/	.
8D\	.	.	8D\	.	.	.	.	.	.	.
8E-\	.	.	8E-\	.	4G/	.	4c/	.	4c/	.
8C\J	.	.	8C\J	.	.	.	.	.	.	.
=108	=108	=108	=108	=108	=108	=108	=108	=108	=108	=108
8c\L	.	2r	8c\L	.	8c\L	.	8cc\L	.	8cc\L	.
8d\	.	.	8d\	.	8d\	.	8dd\	.	8dd\	.
8e-\	.	.	8e-\	.	8e-\	.	8ee-\	.	8ee-\	.
8f\J	.	.	8f\J	.	8f\J	.	8ff\J	.	8ff\J	.
=109	=109	=109	=109	=109	=109	=109	=109	=109	=109	=109
4g\	.	2r	4g\	.	4g\	.	4gg\	.	4gg\	.
4G\	.	.	4G\	.	4G/	.	4g/	.	4g/	.
=110	=110	=110	=110	=110	=110	=110	=110	=110	=110	=110
8A-\L	.	2r	8A-\L	.	8a-\L	.	8a-\L	.	8a-\L	.
8B-\	.	.	8B-\	.	8b-\	.	8b-\	.	8b-\	.
8c\	.	.	8c\	.	8cc\	.	8cc\	.	8cc\	.
8d\J	.	.	8d\J	.	8dd\J	.	8dd\J	.	8dd\J	.
=111	=111	=111	=111	=111	=111	=111	=111	=111	=111	=111
4e-\	.	2r	4e-\	.	4ee-\	.	4ee-\	.	4ee-\	.
4E-\	.	.	4E-\	.	4e-\	.	4e-/	.	4e-/	.
=112	=112	=112	=112	=112	=112	=112	=112	=112	=112	=112
8F\L	.	2r	8F\L	.	8f\L	.	8f/L	.	8f/L	.
8G\	.	.	8G\	.	8g\	.	8g/	.	8g/	.
8A-\	.	.	8A-\	.	8a-\	.	8a-/	.	8a-/	.
8F\J	.	.	8F\J	.	8f\J	.	8f/J	.	8f/J	.
=113	=113	=113	=113	=113	=113	=113	=113	=113	=113	=113
8E-\L	.	2r	8E-\L	.	8e-\L	.	4g/	.	4g/	.
8D\	.	.	8D\	.	8d\	.	.	.	.	.
8E-\	.	.	8E-\	.	8e-\	.	4cc\	.	4cc\	.
8C\J	.	.	8C\J	.	8c\J	.	.	.	.	.
=114	=114	=114	=114	=114	=114	=114	=114	=114	=114	=114
8D/L	.	2r	8D/L	.	8d\L	.	4f/	.	4f/	.
8C/	.	.	8C/	.	8c\	.	.	.	.	.
8BBn/	.	.	8BBn/	.	8Bn\	.	4dd\	.	4dd\	.
8GG/J	.	.	8GG/J	.	8G\J	.	.	.	.	.
=115	=115	=115	=115	=115	=115	=115	=115	=115	=115	=115
4C/	.	2r	4C/	.	4c\	.	4e-/	.	4e-/	.
8.r	.	.	8.r	.	8.r	.	8.r	.	8.r	.
16E-\	.	.	16E-\	.	16g\	.	16cc\	.	16cc\	.
=116	=116	=116	=116	=116	=116	=116	=116	=116	=116	=116
4F\	.	2r	4F\	.	4a-\	.	4dd\	.	4dd\	.
4G\	.	.	4G\	.	4d\	.	4bn\	.	4bn\	.
=117	=117	=117	=117	=117	=117	=117	=117	=117	=117	=117
*	*	*	*^	*	*	*	*	*	*	*
8C\L	.	2r	8C/L	4C\	.	4e-\	.	4cc\	.	12cc\L	.
.	.	.	.	.	.	.	.	.	.	12g\	.
8c\	.	.	8c/	.	.	.	.	.	.	.	.
.	.	.	.	.	.	.	.	.	.	12cc\J	.
8G\	.	.	8G/	4r	.	4r	.	4r	.	12bn\L	.
.	.	.	.	.	.	.	.	.	.	12g\	.
8GG\J	.	.	8GG/J	.	.	.	.	.	.	.	.
.	.	.	.	.	.	.	.	.	.	12b\J	.
*	*	*	*v	*v	*	*	*	*	*	*	*
=118	=118	=118	=118	=118	=118	=118	=118	=118	=118	=118
8C\L	.	2r	8C\L	.	2r	.	2r	.	12cc\L	.
.	.	.	.	.	.	.	.	.	12g\	.
8c\	.	.	8c\	.	.	.	.	.	.	.
.	.	.	.	.	.	.	.	.	12cc\J	.
8G\	.	.	8G\	.	.	.	.	.	12bn\L	.
.	.	.	.	.	.	.	.	.	12g\	.
8GG\J	.	.	8GG\J	.	.	.	.	.	.	.
.	.	.	.	.	.	.	.	.	12b\J	.
=119	=119	=119	=119	=119	=119	=119	=119	=119	=119	=119
4C/	.	2r	4C/	.	2r	.	2r	.	12cc\L	.
.	.	.	.	.	.	.	.	.	12dd\	.
.	.	.	.	.	.	.	.	.	12ee-\J	.
4F\	.	.	4F\	.	.	.	.	.	12dd\L	.
.	.	.	.	.	.	.	.	.	12ee-\	.
.	.	.	.	.	.	.	.	.	12cc\J	.
=120	=120	=120	=120	=120	=120	=120	=120	=120	=120	=120
8G\L	.	2r	8G\L	.	2r	.	2r	.	12bn\L	.
.	.	.	.	.	.	.	.	.	12a\	.
8F\	.	.	8F\	.	.	.	.	.	.	.
.	.	.	.	.	.	.	.	.	12b\J	.
8E-\	.	.	8E-\	.	.	.	.	.	8g/	.
8D\J	.	.	8D\J	.	.	.	.	.	8r	.
=121	=121	=121	=121	=121	=121	=121	=121	=121	=121	=121
4E-\	.	2r	4E-\	.	2r	.	2r	.	12gg\L	.
.	.	.	.	.	.	.	.	.	12ff\	.
.	.	.	.	.	.	.	.	.	12gg\J	.
4C/	.	.	4C/	.	.	.	.	.	12ee-\L	.
.	.	.	.	.	.	.	.	.	12ff\	.
.	.	.	.	.	.	.	.	.	12gg\J	.
=122	=122	=122	=122	=122	=122	=122	=122	=122	=122	=122
4F\	.	2r	4F\	.	2r	.	2r	.	12aa-\L	.
.	.	.	.	.	.	.	.	.	12gg\	.
.	.	.	.	.	.	.	.	.	12aa-\J	.
4D\	.	.	4D\	.	.	.	.	.	12ff\L	.
.	.	.	.	.	.	.	.	.	12ee-\	.
.	.	.	.	.	.	.	.	.	12ff\J	.
=123	=123	=123	=123	=123	=123	=123	=123	=123	=123	=123
4BB-/	.	2r	4BB-/	.	2r	.	2r	.	12dd\L	.
.	.	.	.	.	.	.	.	.	12ee-\	.
.	.	.	.	.	.	.	.	.	12ff\J	.
4BB-/	.	.	4BB-/	.	.	.	.	.	12dd\L	.
.	.	.	.	.	.	.	.	.	12ee-\	.
.	.	.	.	.	.	.	.	.	12ff\J	.
=124	=124	=124	=124	=124	=124	=124	=124	=124	=124	=124
4E-\	.	2r	4E-\	.	2r	.	2r	.	12gg\L	.
.	.	.	.	.	.	.	.	.	12ff\	.
.	.	.	.	.	.	.	.	.	12gg\J	.
4E-\	.	.	4E-\	.	.	.	.	.	12ee-\L	.
.	.	.	.	.	.	.	.	.	12dd\	.
.	.	.	.	.	.	.	.	.	12ee-\J	.
=125	=125	=125	=125	=125	=125	=125	=125	=125	=125	=125
4E-\	.	2r	4E-\	.	2r	.	2r	.	12cc\L	.
.	.	.	.	.	.	.	.	.	12dd\	.
.	.	.	.	.	.	.	.	.	12ee-\J	.
4E-\	.	.	4E-\	.	.	.	.	.	12cc\L	.
.	.	.	.	.	.	.	.	.	12dd\	.
.	.	.	.	.	.	.	.	.	12ee-\J	.
=126	=126	=126	=126	=126	=126	=126	=126	=126	=126	=126
4D\	.	2r	4D\	.	2r	.	2r	.	12ff\L	.
.	.	.	.	.	.	.	.	.	12ee-\	.
.	.	.	.	.	.	.	.	.	12ff\J	.
4F\	.	.	4F\	.	.	.	.	.	12dd\L	.
.	.	.	.	.	.	.	.	.	12cc\	.
.	.	.	.	.	.	.	.	.	12dd\J	.
=127	=127	=127	=127	=127	=127	=127	=127	=127	=127	=127
4G\	.	2r	4G\	.	2r	.	2r	.	12bn\L	.
.	.	.	.	.	.	.	.	.	12cc\	.
.	.	.	.	.	.	.	.	.	12dd\J	.
4G\	.	.	4G\	.	.	.	.	.	12b\L	.
.	.	.	.	.	.	.	.	.	12cc\	.
.	.	.	.	.	.	.	.	.	12dd\J	.
=128	=128	=128	=128	=128	=128	=128	=128	=128	=128	=128
4C/	.	2r	4C/	.	2r	.	2r	.	12ee-\L	.
.	.	.	.	.	.	.	.	.	12dd\	.
.	.	.	.	.	.	.	.	.	12cc\J	.
4D\	.	.	4D\	.	.	.	.	.	12ff\L	.
.	.	.	.	.	.	.	.	.	12ee-\	.
.	.	.	.	.	.	.	.	.	12dd\J	.
=129	=129	=129	=129	=129	=129	=129	=129	=129	=129	=129
4E-\	.	2r	4E-\	.	2r	.	2r	.	12gg\L	.
.	.	.	.	.	.	.	.	.	12ff\	.
.	.	.	.	.	.	.	.	.	12ee-\J	.
4F\	.	.	4F\	.	.	.	.	.	12aa-\L	.
.	.	.	.	.	.	.	.	.	12gg\	.
.	.	.	.	.	.	.	.	.	12ff\J	.
=130	=130	=130	=130	=130	=130	=130	=130	=130	=130	=130
8GG/L	.	2r	8GG/L	.	2r	.	2r	.	4gg\	.
8G/	.	.	8G/	.	.	.	.	.	.	.
8G/	.	.	8G/	.	.	.	.	.	16r	.
.	.	.	.	.	.	.	.	.	16aa-\LL	.
8GG/J	.	.	8GG/J	.	.	.	.	.	16gg\	.
.	.	.	.	.	.	.	.	.	16aa-\JJ	.
=131	=131	=131	=131	=131	=131	=131	=131	=131	=131	=131
8GG/L	.	2r	8GG/L	.	2r	.	2r	.	8gg\L	.
8G/	.	.	8G/	.	.	.	.	.	8bn\	.
8G/	.	.	8G/	.	.	.	.	.	8b\	.
8GG/J	.	.	8GG/J	.	.	.	.	.	8cc\J	.
=132	=132	=132	=132	=132	=132	=132	=132	=132	=132	=132
8GG/L	.	2r	8GG/L	.	2r	.	2r	.	8cc\L	.
8G/	.	.	8G/	.	.	.	.	.	8bn\J	.
8G/	.	.	8G/	.	.	.	.	.	16r	.
.	.	.	.	.	.	.	.	.	16aa-\LL	.
8GG/J	.	.	8GG/J	.	.	.	.	.	16gg\	.
.	.	.	.	.	.	.	.	.	16aa-\JJ	.
=133	=133	=133	=133	=133	=133	=133	=133	=133	=133	=133
8GG/L	.	2r	8GG/L	.	2r	.	2r	.	8gg\L	.
8G/	.	.	8G/	.	.	.	.	.	8bn\	.
8G/	.	.	8G/	.	.	.	.	.	8b\	.
8GG/J	.	.	8GG/J	.	.	.	.	.	8cc\J	.
=134	=134	=134	=134	=134	=134	=134	=134	=134	=134	=134
8GG/L	.	2r	8GG/L	.	2r	.	2r	.	8cc\L	.
8G/	.	.	8G/	.	.	.	.	.	8bn\J	.
8G/	.	.	8G/	.	.	.	.	.	8r	.
8GG/J	.	.	8GG/J	.	.	.	.	.	8gg\	.
=135	=135	=135	=135	=135	=135	=135	=135	=135	=135	=135
8GG/L	.	2r	8GG/L	.	2r	.	2r	.	8ee-\L	.
8G/	.	.	8G/	.	.	.	.	.	8cc\	.
8G/	.	.	8G/	.	.	.	.	.	8dd\	.
8GG/J	.	.	8GG/J	.	.	.	.	.	8bn\J	.
=136	=136	=136	=136	=136	=136	=136	=136	=136	=136	=136
8GG/L	.	2r	8GG/L	.	2r	.	2r	.	8ee-\L	.
8G/	.	.	8G/	.	.	.	.	.	8cc\	.
8G/	.	.	8G/	.	.	.	.	.	8dd\	.
8GG/J	.	.	8GG/J	.	.	.	.	.	8bn\J	.
=137	=137	=137	=137	=137	=137	=137	=137	=137	=137	=137
4C/	f	2r	4C/	f	4e-\	f	4cc\	f	4cc\	f
4GG/	.	.	4GG/	.	4d\	.	4bn\	.	4bn\	.
=138	=138	=138	=138	=138	=138	=138	=138	=138	=138	=138
8C\L	.	2r	8C\L	.	8e-\L	.	4cc\	.	4cc\	.
8D\	.	.	8D\	.	8f\	.	.	.	.	.
8E-\	.	.	8E-\	.	8g\	.	8r	.	8r	.
8C\J	.	.	8C\J	.	8e-\J	.	8gg\	.	8gg\	.
=139	=139	=139	=139	=139	=139	=139	=139	=139	=139	=139
4F\	.	2r	4F\	.	4c\	.	8aa-\L	.	8aa-\L	.
.	.	.	.	.	.	.	8ff\	.	8ff\	.
4BBn/	.	.	4BBn/	.	4d\	.	8gg\	.	8gg\	.
.	.	.	.	.	.	.	8dd\J	.	8dd\J	.
=140	=140	=140	=140	=140	=140	=140	=140	=140	=140	=140
8C\L	.	2r	8C\L	.	4G/	.	4ee-\	.	4ee-\	.
8D\	.	.	8D\	.	.	.	.	.	.	.
8En\	.	.	8En\	.	8r	.	4cc\	.	4cc\	.
8F#\J	.	.	8F#\J	.	8a\	.	.	.	.	.
=141	=141	=141	=141	=141	=141	=141	=141	=141	=141	=141
4G\	.	2r	4G\	.	4b-\	.	4gg\	.	4gg\	.
4D\	.	.	4D\	.	4a\	.	4ff#\	.	4ff#\	.
=142	=142	=142	=142	=142	=142	=142	=142	=142	=142	=142
8G\L	.	2r	8G\L	.	8b-\L	.	4gg\	.	4gg\	.
8A\	.	.	8A\	.	8cc\	.	.	.	.	.
8B-\	.	.	8B-\	.	8dd\	.	8r	.	8r	.
8G\J	.	.	8G\J	.	8b-\J	.	8dd\	.	8dd\	.
=143	=143	=143	=143	=143	=143	=143	=143	=143	=143	=143
4c\	.	2r	4c\	.	4g\	.	8ee-\L	.	8ee-\L	.
.	.	.	.	.	.	.	8cc\	.	8cc\	.
4F#\	.	.	4F#\	.	4a\	.	8dd\	.	8dd\	.
.	.	.	.	.	.	.	8a\J	.	8a\J	.
=144	=144	=144	=144	=144	=144	=144	=144	=144	=144	=144
8G\L	.	2r	8G\L	.	4d\	.	8b-\L	.	8b-\L	.
8A\	.	.	8A\	.	.	.	8g\	.	8g\	.
8B-\	.	.	8B-\	.	8r	.	8b-\	.	8b-\	.
8A\J	.	.	8A\J	.	8d\	.	8dd\J	.	8dd\J	.
=145	=145	=145	=145	=145	=145	=145	=145	=145	=145	=145
8G\L	.	2r	8G\L	.	4d\	.	8bb-\L	.	8bb-\L	.
8A\	.	.	8A\	.	.	.	8bb-\	.	8bb-\	.
8B-\	.	.	8B-\	.	8r	.	8bb-\	.	8bb-\	.
8G\J	.	.	8G\J	.	8d\	.	8bb-\J	.	8bb-\J	.
=146	=146	=146	=146	=146	=146	=146	=146	=146	=146	=146
8C\L	.	2r	8C\L	.	8e-\L	.	16bb-\LL	.	16bb-\LL	.
.	.	.	.	.	.	.	16cc\	.	16cc\	.
8D\	.	.	8D\	.	8f\	.	16cc\	.	16cc\	.
.	.	.	.	.	.	.	16bb-\JJ	.	16bb-\JJ	.
8E-\	.	.	8E-\	.	8g\	.	16bb-\LL	.	16bb-\LL	.
.	.	.	.	.	.	.	16cc\	.	16cc\	.
8C\J	.	.	8C\J	.	8e-\J	.	16cc\	.	16cc\	.
.	.	.	.	.	.	.	16bb-\JJ	.	16bb-\JJ	.
=147	=147	=147	=147	=147	=147	=147	=147	=147	=147	=147
8F\L	.	2r	8F\L	.	4c\	.	8aa\L	.	8aa\L	.
8G\	.	.	8G\	.	.	.	8aa\	.	8aa\	.
8A\	.	.	8A\	.	8r	.	8aa\	.	8aa\	.
8F\J	.	.	8F\J	.	8c\	.	8aa\J	.	8aa\J	.
=148	=148	=148	=148	=148	=148	=148	=148	=148	=148	=148
8BB-/L	.	2r	8BB-/L	.	8d\L	.	16aa\LL	.	16aa\LL	.
.	.	.	.	.	.	.	16b-\	.	16b-\	.
8C/	.	.	8C/	.	8e-\	.	16b-\	.	16b-\	.
.	.	.	.	.	.	.	16aa\JJ	.	16aa\JJ	.
8D/	.	.	8D/	.	8f\	.	16aa\LL	.	16aa\LL	.
.	.	.	.	.	.	.	16b-\	.	16b-\	.
8BB-/J	.	.	8BB-/J	.	8d\J	.	16b-\	.	16b-\	.
.	.	.	.	.	.	.	16aa\JJ	.	16aa\JJ	.
=149	=149	=149	=149	=149	=149	=149	=149	=149	=149	=149
8E-\L	.	2r	8E-\L	.	8B-\L	.	8gg\L	.	8gg\L	.
8E-\	.	.	8E-\	.	8B-\	.	8gg\	.	8gg\	.
8C#\	.	.	8C#\	.	8en\	.	8gg\	.	8gg\	.
8C#\J	.	.	8C#\J	.	8e\J	.	8gg\J	.	8gg\J	.
=150	=150	=150	=150	=150	=150	=150	=150	=150	=150	=150
8D\L	.	2r	8D/L	.	8A\L	.	8ff#\L	.	8ff#\L	.
8D\	.	.	8D/	.	8A\	.	16een\L	.	16een\L	.
.	.	.	.	.	.	.	16ff#\JJ	.	16ff#\JJ	.
8C#\	.	.	8C#/	.	8en\	.	8gg\L	.	8gg\L	.
8C#\J	.	.	8C#/J	.	8e\J	.	16aa\L	.	16aa\L	.
.	.	.	.	.	.	.	16gg\JJ	.	16gg\JJ	.
=151	=151	=151	=151	=151	=151	=151	=151	=151	=151	=151
8D/L	.	2r	8D/L	.	8A\L	.	8ff#\L	.	8ff#\L	.
8D/	.	.	8D/	.	8A\	.	16een\L	.	16een\L	.
.	.	.	.	.	.	.	16ff#\JJ	.	16ff#\JJ	.
8C#/	.	.	8C#/	.	8en\	.	8gg\L	.	8gg\L	.
8C#/J	.	.	8C#/J	.	8e\J	.	16aa\L	.	16aa\L	.
.	.	.	.	.	.	.	16gg\JJ	.	16gg\JJ	.
=152	=152	=152	=152	=152	=152	=152	=152	=152	=152	=152
*	*	*	*^	*	*	*	*	*	*	*
8D\L	.	2r	8D/L	4D\	.	4A/	.	4ff#\	.	8ff#\L	.
8F#\	.	.	8F#/	.	.	.	.	.	.	8dd\J	.
8G\	.	.	8G/	4r	.	4r	.	4r	.	8r	.
8B-\J	.	.	8B-/J	.	.	.	.	.	.	8dd\	.
*	*	*	*v	*v	*	*	*	*	*	*	*
=153	=153	=153	=153	=153	=153	=153	=153	=153	=153	=153
8cn\L	.	2r	8cn\L	.	2r	.	2r	.	8ee-\	.
8B-\	.	.	8B-\	.	.	.	.	.	4dd\	.
8B-\	.	.	8B-\	.	.	.	.	.	.	.
8G\J	.	.	8G\J	.	.	.	.	.	8gg\	.
=154	=154	=154	=154	=154	=154	=154	=154	=154	=154	=154
8c\L	.	2r	8c\L	.	2r	.	2r	.	8ee-\	.
8B-\	.	.	8B-\	.	.	.	.	.	4dd\	.
8G\	.	.	8G\	.	.	.	.	.	.	.
8F#\J	.	.	8F#\J	.	.	.	.	.	8aa\	.
=155	=155	=155	=155	=155	=155	=155	=155	=155	=155	=155
8G\L	.	2r	8G\L	.	2r	.	2r	.	8bb-\	.
8F#\	.	.	8F#\	.	.	.	.	.	4aa\	.
8F#\	.	.	8F#\	.	.	.	.	.	.	.
8F#\J	.	.	8F#\J	.	.	.	.	.	8ddd\	.
=156	=156	=156	=156	=156	=156	=156	=156	=156	=156	=156
8G\L	.	2r	8G\L	.	2r	.	2r	.	8bb-\	.
8F#\	.	.	8F#\	.	.	.	.	.	4aa\	.
8F#\	.	.	8F#\	.	.	.	.	.	.	.
8F#\J	.	.	8F#\J	.	.	.	.	.	8dd\	.
=157	=157	=157	=157	=157	=157	=157	=157	=157	=157	=157
8G\L	.	2r	8G\L	.	2r	.	2r	.	16bb-\LL	.
.	.	.	.	.	.	.	.	.	16dd\	.
8A\	.	.	8A\	.	.	.	.	.	16dd\	.
.	.	.	.	.	.	.	.	.	16bb-\JJ	.
8B-\	.	.	8B-\	.	.	.	.	.	16bb-\LL	.
.	.	.	.	.	.	.	.	.	16dd\	.
8G\J	.	.	8G\J	.	.	.	.	.	16dd\	.
.	.	.	.	.	.	.	.	.	16bb-\JJ	.
=158	=158	=158	=158	=158	=158	=158	=158	=158	=158	=158
8E-\L	.	2r	8E-\L	.	2r	.	2r	.	16bb-\LL	.
.	.	.	.	.	.	.	.	.	16cc\	.
8D\	.	.	8D\	.	.	.	.	.	16cc\	.
.	.	.	.	.	.	.	.	.	16bb-\JJ	.
8E-\	.	.	8E-\	.	.	.	.	.	16bb-\LL	.
.	.	.	.	.	.	.	.	.	16cc\	.
8C\J	.	.	8C\J	.	.	.	.	.	16cc\	.
.	.	.	.	.	.	.	.	.	16bb-\JJ	.
=159	=159	=159	=159	=159	=159	=159	=159	=159	=159	=159
8F\L	.	2r	8F\L	.	2r	.	2r	.	16aa\LL	.
.	.	.	.	.	.	.	.	.	16cc\	.
8G\	.	.	8G\	.	.	.	.	.	16cc\	.
.	.	.	.	.	.	.	.	.	16aa\JJ	.
8A\	.	.	8A\	.	.	.	.	.	16aa\LL	.
.	.	.	.	.	.	.	.	.	16cc\	.
8F\J	.	.	8F\J	.	.	.	.	.	16cc\	.
.	.	.	.	.	.	.	.	.	16aa\JJ	.
=160	=160	=160	=160	=160	=160	=160	=160	=160	=160	=160
8D\L	.	2r	8D\L	.	2r	.	2r	.	16aa\LL	.
.	.	.	.	.	.	.	.	.	16b-\	.
8C\	.	.	8C\	.	.	.	.	.	16b-\	.
.	.	.	.	.	.	.	.	.	16aa\JJ	.
8D\	.	.	8D\	.	.	.	.	.	16aa\LL	.
.	.	.	.	.	.	.	.	.	16b-\	.
8BB-\J	.	.	8BB-\J	.	.	.	.	.	16b-\	.
.	.	.	.	.	.	.	.	.	16aa\JJ	.
=161	=161	=161	=161	=161	=161	=161	=161	=161	=161	=161
8BB-/L	.	2r	8BB-/L	.	2r	.	2r	.	16gg\LL	.
.	.	.	.	.	.	.	.	.	16b-\	.
8AA/	.	.	8AA/	.	.	.	.	.	16b-\	.
.	.	.	.	.	.	.	.	.	16gg\JJ	.
8BB-/	.	.	8BB-/	.	.	.	.	.	16gg\LL	.
.	.	.	.	.	.	.	.	.	16b-\	.
8GG/J	.	.	8GG/J	.	.	.	.	.	16b-\	.
.	.	.	.	.	.	.	.	.	16gg\JJ	.
=162	=162	=162	=162	=162	=162	=162	=162	=162	=162	=162
8D\L	.	2r	8D\L	.	2r	.	2r	.	4d/ 4a/ 4ff#/	.
8d\	.	.	8d\	.	.	.	.	.	.	.
8d\	.	.	8d\	.	.	.	.	.	8r	.
8D\J	.	.	8D\J	.	.	.	.	.	8a/	.
=163	=163	=163	=163	=163	=163	=163	=163	=163	=163	=163
8D\L	.	2r	8D\L	.	2r	.	2r	.	16a/LL	.
.	.	.	.	.	.	.	.	.	16d/	.
8d\	.	.	8d\	.	.	.	.	.	16d/	.
.	.	.	.	.	.	.	.	.	16b-/JJ	.
8d\	.	.	8d\	.	.	.	.	.	16b-/LL	.
.	.	.	.	.	.	.	.	.	16d/	.
8D\J	.	.	8D\J	.	.	.	.	.	16d/	.
.	.	.	.	.	.	.	.	.	16a/JJ	.
=164	=164	=164	=164	=164	=164	=164	=164	=164	=164	=164
8D\L	.	2r	8D\L	.	2r	.	2r	.	16a/LL	.
.	.	.	.	.	.	.	.	.	16d/	.
8d\	.	.	8d\	.	.	.	.	.	16d/	.
.	.	.	.	.	.	.	.	.	16b-/JJ	.
8d\	.	.	8d\	.	.	.	.	.	16b-/LL	.
.	.	.	.	.	.	.	.	.	16d/	.
8D\J	.	.	8D\J	.	.	.	.	.	16d/	.
.	.	.	.	.	.	.	.	.	16a/JJ	.
=165	=165	=165	=165	=165	=165	=165	=165	=165	=165	=165
8D\L	.	2r	8D\L	.	2r	.	2r	.	16a/LL	.
.	.	.	.	.	.	.	.	.	16d/	.
8d\	.	.	8d\	.	.	.	.	.	16d/	.
.	.	.	.	.	.	.	.	.	16b-/JJ	.
8d\	.	.	8d\	.	.	.	.	.	16b-/LL	.
.	.	.	.	.	.	.	.	.	16d/	.
8D\J	.	.	8D\J	.	.	.	.	.	16d/	.
.	.	.	.	.	.	.	.	.	16cc/JJ	.
=166	=166	=166	=166	=166	=166	=166	=166	=166	=166	=166
8D\L	.	2r	8D\L	.	2r	.	2r	.	16dd/LL	.
.	.	.	.	.	.	.	.	.	16d/	.
8d\	.	.	8d\	.	.	.	.	.	16d/	.
.	.	.	.	.	.	.	.	.	16dd/JJ	.
8d\	.	.	8d\	.	.	.	.	.	16dd/LL	.
.	.	.	.	.	.	.	.	.	16d/	.
8D\J	.	.	8D\J	.	.	.	.	.	16d/	.
.	.	.	.	.	.	.	.	.	16ee-/JJ	.
=167	=167	=167	=167	=167	=167	=167	=167	=167	=167	=167
8D\L	.	2r	8D\L	.	2r	.	2r	.	16ee-/LL	.
.	.	.	.	.	.	.	.	.	16d/	.
8d\	.	.	8d\	.	.	.	.	.	16d/	.
.	.	.	.	.	.	.	.	.	16dd/JJ	.
8d\	.	.	8d\	.	.	.	.	.	16dd/LL	.
.	.	.	.	.	.	.	.	.	16d/	.
8D\J	.	.	8D\J	.	.	.	.	.	16d/	.
.	.	.	.	.	.	.	.	.	16cc/JJ	.
=168	=168	=168	=168	=168	=168	=168	=168	=168	=168	=168
8D\L	.	2r	8D\L	.	2r	.	2r	.	16cc/LL	.
.	.	.	.	.	.	.	.	.	16d/	.
8d\	.	.	8d\	.	.	.	.	.	16d/	.
.	.	.	.	.	.	.	.	.	16b-/JJ	.
8d\	.	.	8d\	.	.	.	.	.	16a/LL	.
.	.	.	.	.	.	.	.	.	16d/	.
8D\J	.	.	8D\J	.	.	.	.	.	16d/	.
.	.	.	.	.	.	.	.	.	16a/JJ	.
=169	=169	=169	=169	=169	=169	=169	=169	=169	=169	=169
8D\L	.	2r	8D\L	.	2r	.	2r	.	16a/LL	.
.	.	.	.	.	.	.	.	.	16d/	.
8d\	.	.	8d\	.	.	.	.	.	16d/	.
.	.	.	.	.	.	.	.	.	16b-/JJ	.
8d\	.	.	8d\	.	.	.	.	.	16b-/LL	.
.	.	.	.	.	.	.	.	.	16d/	.
8D\J	.	.	8D\J	.	.	.	.	.	16d/	.
.	.	.	.	.	.	.	.	.	16cc/JJ	.
=170	=170	=170	=170	=170	=170	=170	=170	=170	=170	=170
8D\L	.	2r	8D\L	.	2r	.	2r	.	16cc/LL	.
.	.	.	.	.	.	.	.	.	16d/	.
8d\	.	.	8d\	.	.	.	.	.	16d/	.
.	.	.	.	.	.	.	.	.	16dd/JJ	.
8d\	.	.	8d\	.	.	.	.	.	16dd/LL	.
.	.	.	.	.	.	.	.	.	16d/	.
8D\J	.	.	8D\J	.	.	.	.	.	16d/	.
.	.	.	.	.	.	.	.	.	16ee-/JJ	.
=171	=171	=171	=171	=171	=171	=171	=171	=171	=171	=171
8D\L	.	2r	8D\L	.	2r	.	2r	.	16ee-/LL	.
.	.	.	.	.	.	.	.	.	16d/	.
8d\	.	.	8d\	.	.	.	.	.	16d/	.
.	.	.	.	.	.	.	.	.	16dd/JJ	.
8d\	.	.	8d\	.	.	.	.	.	16dd/LL	.
.	.	.	.	.	.	.	.	.	16d/	.
8D\J	.	.	8D\J	.	.	.	.	.	16d/	.
.	.	.	.	.	.	.	.	.	16cc/JJ	.
=172	=172	=172	=172	=172	=172	=172	=172	=172	=172	=172
8D\L	.	2r	8D\L	.	2r	.	2r	.	16cc/LL	.
.	.	.	.	.	.	.	.	.	16d/	.
8d\	.	.	8d\	.	.	.	.	.	16d/	.
.	.	.	.	.	.	.	.	.	16b-/JJ	.
8d\	.	.	8d\	.	.	.	.	.	16b-/LL	.
.	.	.	.	.	.	.	.	.	16d/	.
8D\J	.	.	8D\J	.	.	.	.	.	16d/	.
.	.	.	.	.	.	.	.	.	16a/JJ	.
=173	=173	=173	=173	=173	=173	=173	=173	=173	=173	=173
8D\L	.	2r	8D\L	.	2r	.	2r	.	8a/	.
8En\	.	.	8En\	.	.	.	.	.	4d/	.
8F#\	.	.	8F#\	.	.	.	.	.	.	.
8D\J	.	.	8D\J	.	.	.	.	.	8aa\	.
=174	=174	=174	=174	=174	=174	=174	=174	=174	=174	=174
8G\L	.	2r	8G\L	.	2r	.	2r	.	8bb-\	.
8F#\	.	.	8F#\	.	.	.	.	.	4aa\	.
8F#\	.	.	8F#\	.	.	.	.	.	.	.
8F#\J	.	.	8F#\J	.	.	.	.	.	8ddd\	.
=175	=175	=175	=175	=175	=175	=175	=175	=175	=175	=175
8G\L	.	2r	8G\L	.	2r	.	2r	.	8bb-\	.
8F#\	.	.	8F#\	.	.	.	.	.	4aa\	.
8F#\	.	.	8F#\	.	.	.	.	.	.	.
8F#\J	.	.	8F#\J	.	.	.	.	.	8ddd\	.
=176	=176	=176	=176	=176	=176	=176	=176	=176	=176	=176
8G\L	.	2r	8G\L	.	2r	.	2r	.	8bb-\L	.
8BB-\	.	.	8BB-\	.	.	.	.	.	8gg\	.
8C\	.	.	8C\	.	.	.	.	.	8aa\	.
8D\J	.	.	8D\J	.	.	.	.	.	8ff#\J	.
=177	=177	=177	=177	=177	=177	=177	=177	=177	=177	=177
8GG/L	.	2r	8GG/L	.	2r	.	2r	.	8bb-\L	.
8BB-/	.	.	8BB-/	.	.	.	.	.	8gg\	.
8C/	.	.	8C/	.	.	.	.	.	8aa\	.
8D/J	.	.	8D/J	.	.	.	.	.	8ff#\J	.
=178	=178	=178	=178	=178	=178	=178	=178	=178	=178	=178
8GG/L	.	2r	8GG/L	.	2r	.	2r	.	8bb-\L	.
8BB-/	.	.	8BB-/	.	.	.	.	.	8gg\	.
8C/	.	.	8C/	.	.	.	.	.	8aa\	.
8D/J	.	.	8D/J	.	.	.	.	.	8ff#\J	.
=179	=179	=179	=179	=179	=179	=179	=179	=179	=179	=179
8G\L	.	2r	8G\L	.	4r	.	4r	.	4gg\	.
8A\	.	.	8A\	.	.	.	.	.	.	.
8B-\	.	.	8B-\	.	8r	.	8r	.	8r	.
8A\J	.	.	8A\J	.	8d\	f	8dd\	f	8dd\	f
=180	=180	=180	=180	=180	=180	=180	=180	=180	=180	=180
8G\L	.	2r	8G\L	f	4.d\	.	8bb-\L	.	8bb-\L	.
8A\	.	.	8A\	.	.	.	8bb-\	.	8bb-\	.
8B-\	.	.	8B-\	.	.	.	8bb-\	.	8bb-\	.
8G\J	.	.	8G\J	.	8d\	.	8bb-\J	.	8bb-\J	.
=181	=181	=181	=181	=181	=181	=181	=181	=181	=181	=181
8E-\L	.	2r	8E-\L	.	4.g\	.	8bb-\L	.	8bb-\L	.
8D\	.	.	8D\	.	.	.	8cc\	.	8cc\	.
8E-\	.	.	8E-\	.	.	.	8cc\	.	8cc\	.
8C\J	.	.	8C\J	.	8e-\	.	8cc\J	.	8cc\J	.
=182	=182	=182	=182	=182	=182	=182	=182	=182	=182	=182
8F\L	.	2r	8F\L	.	4.c\	.	8aa\L	.	8aa\L	.
8G\	.	.	8G\	.	.	.	8aa\	.	8aa\	.
8A\	.	.	8A\	.	.	.	8aa\	.	8aa\	.
8F\J	.	.	8F\J	.	8c\	.	8aa\J	.	8aa\J	.
=183	=183	=183	=183	=183	=183	=183	=183	=183	=183	=183
8D\L	.	2r	8D\L	.	4.f\	.	8aa\L	.	8aa\L	.
8C\	.	.	8C\	.	.	.	8b-\	.	8b-\	.
8D\	.	.	8D\	.	.	.	8b-\	.	8b-\	.
8BB-\J	.	.	8BB-\J	.	8d\	.	8b-\J	.	8b-\J	.
=184	=184	=184	=184	=184	=184	=184	=184	=184	=184	=184
8E-\L	.	2r	8E-\L	.	4.B-/	.	8gg\L	.	8gg\L	.
8D\	.	.	8D\	.	.	.	8gg\	.	8gg\	.
8E-\	.	.	8E-\	.	.	.	8gg\	.	8gg\	.
8C\J	.	.	8C\J	.	8B-/	.	8gg\J	.	8gg\J	.
=185	=185	=185	=185	=185	=185	=185	=185	=185	=185	=185
4D\	.	2r	4D\	.	4A/	.	8ff#\L	.	8ff#\L	.
.	.	.	.	.	.	.	8dd\J	.	8dd\J	.
8r	.	.	8r	.	8r	.	8r	.	8r	.
8G\	.	.	8G\	.	8g\	.	8g/	.	8g/	.
=186	=186	=186	=186	=186	=186	=186	=186	=186	=186	=186
8F\L	.	2r	8F\L	.	8f\L	.	8f/L	.	8f/L	.
8E-\	.	.	8E-\	.	8e-\	.	8e-/	.	8e-/	.
8D\	.	.	8D\	.	8d\	.	8d/	.	8d/	.
8C\J	.	.	8C\J	.	8c\J	.	8c/J	.	8c/J	.
=187	=187	=187	=187	=187	=187	=187	=187	=187	=187	=187
8BB-/L	.	2r	8BB-\L	.	8B-\L	.	8B-/L	.	8B-/L	.
8AA/	.	.	8AA\	.	8A\	.	8A/	.	8A/	.
8GG/	.	.	8GG\	.	8G\	.	8G/	.	8G/	.
8D/J	.	.	8D\J	.	8d\J	.	8d/J	.	8d/J	.
=188	=188	=188	=188	=188	=188	=188	=188	=188	=188	=188
8C/L	.	2r	8C/L	.	8c\L	.	8c/L	.	8c/L	.
8BB-/	.	.	8BB-/	.	8B-\	.	8B-/	.	8B-/	.
8AA/	.	.	8AA/	.	8A\	.	8A/	.	8A/	.
8GG/J	.	.	8GG/J	.	8G\J	.	8G/J	.	8G/J	.
=189	=189	=189	=189	=189	=189	=189	=189	=189	=189	=189
4D\	.	2r	4D\	.	4d\	.	4d/	.	4d/	.
8.r	.	.	8.r	.	8.r	.	8.r	.	8.r	.
16BB-/	.	.	16BB-/	.	16d\	.	16gg\	.	16gg\	.
=190	=190	=190	=190	=190	=190	=190	=190	=190	=190	=190
4C/	.	2r	4C/	.	4e-\	.	4aa\	.	4aa\	.
4D\	.	.	4D\	.	4a\	.	4ff#\	.	4ff#\	.
=191	=191	=191	=191	=191	=191	=191	=191	=191	=191	=191
4GG/	.	2r	4GG/	.	4b-\	.	4gg\	.	4gg\	.
8.r	.	.	8.r	.	8.r	.	8.r	.	8.r	.
16BB-/	.	.	16BB-/	.	16d\	.	16g/	.	16g/	.
=192	=192	=192	=192	=192	=192	=192	=192	=192	=192	=192
4C/	.	2r	4C/	.	4e-\	.	4a/	.	4a/	.
4D\	.	.	4D\	.	4A/	.	4f#/	.	4f#/	.
=193	=193	=193	=193	=193	=193	=193	=193	=193	=193	=193
2GG;/	.	2r	2GG;/	.	2B-;/	.	2g;/	.	2g;/	.
==	==	==	==	==	==	==	==	==	==	==
*-	*-	*-	*-	*-	*-	*-	*-	*-	*-	*-
!!!ENC: Don Anthony
!!!END: 2005/06/10/
!!!ONB: Converted to Humdrum by Craig Sapp 2005/06/26/
